;FLAVOR:Marlin
;TIME:2523
;Filament used: 0.639917m
;Layer height: 0.2
;Extruders used: T0 0.4
;BCN3D_FIXES
;Generated with Cura_SteamEngine 2.1.5
T0
M190 S60
M104 S200
M109 S200
M82 ;absolute extrusion mode
;Sigma ProGen 2.2.0 (Build 14CJ1301)
;BCN3D Fixes applied
; - Fix Acceleration/Jerk commands
; - Prevent Filament Grinding
; - Z Hop At Layer Change

G21          ;metric values
G90          ;absolute positioning
M204 S2000 ;set default acceleration
M205 X15 Y15 ;set default jerk
M107         ;start with the fan off
G28 X0 Y0    ;move X/Y to min endstops
G28 Z0       ;move Z to min endstops
G1 Z5 F200   ;safety Z axis movement
T1           ;switch to the right extruder
G92 E0       ;zero the extruded length

G92 E0       
G4 P2000     ;stabilize hotend's pressure
T0           ;switch to the left extruder
G92 E0       ;zero the extruded length
G1 F47.4 E15 ;extrude 15mm of feed stock
G92 E0
G4 P2000     ;stabilize hotend's pressure


G4 P1
G4 P2
G4 P3

;LAYER_COUNT:149
;LAYER:-6
M107
M204 S889
M205 X11.25 Y11.25
G0 F3600 X99.183 Y161.951 Z0.3
M204 S2000
M205 X15 Y15
G1 F1125 X98.84 Y161.945 E0.01613
G1 X98.436 Y161.894 E0.03528
G1 X98.042 Y161.776 E0.05462
G1 X97.912 Y161.714 E0.0614
G1 X97.387 Y161.5 E0.08806
G1 X97.186 Y161.426 E0.09813
G1 X96.828 Y161.229 E0.11735
G1 X96.584 Y161.04 E0.13186
G1 X96.587 Y161.036 E0.1321
G1 X95.743 Y160.307 E0.18454
G1 X95.531 Y160.057 E0.19996
G1 X95.158 Y159.563 E0.22907
G1 X94.794 Y159.013 E0.26008
G1 X94.612 Y158.763 E0.27462
G1 X94.468 Y158.494 E0.28897
G1 X94.134 Y157.689 E0.32996
G1 X94.119 Y157.696 E0.33074
G1 X94.052 Y157.526 E0.33933
G1 X93.754 Y156.471 E0.39088
G1 X93.688 Y156.065 E0.41023
G1 X93.539 Y155.41 E0.44182
G1 X93.391 Y154.975 E0.46342
G1 X93.296 Y154.657 E0.47903
G1 X93.223 Y154.257 E0.49815
G1 X93.215 Y153.865 E0.51659
G1 X93.299 Y153.227 E0.54685
G1 X93.341 Y152.779 E0.56801
G1 X93.378 Y152.575 E0.57776
G1 X93.454 Y151.9 E0.60971
G1 X93.445 Y151.204 E0.64244
G1 X93.348 Y150.516 E0.67511
G1 X93.164 Y149.846 E0.70779
G1 X92.896 Y149.2 E0.74068
G1 X92.465 Y148.473 E0.78042
G1 X92.402 Y148.383 E0.78559
G1 X92.272 Y148.163 E0.7976
G1 X91.891 Y147.6 E0.82957
G1 X91.433 Y147.078 E0.86223
G1 X90.911 Y146.617 E0.89498
G1 X90.336 Y146.227 E0.92765
G1 X89.775 Y145.939 E0.95731
G1 X89.628 Y145.871 E0.96493
G1 X89.284 Y145.643 E0.98433
G1 X88.985 Y145.366 E1.0035
G1 X88.765 Y145.086 E1.02025
G1 X88.699 Y144.986 E1.02588
G1 X88.622 Y144.851 E1.03319
G1 X88.455 Y144.432 E1.0544
G1 X88.365 Y144.161 E1.06783
G1 X88.135 Y143.296 E1.10992
G1 X88.096 Y143.105 E1.11909
G1 X88.043 Y142.779 E1.13462
G1 X88.005 Y142.341 E1.1553
G1 X87.998 Y142.131 E1.16518
G1 X88.041 Y141.647 E1.18803
G1 X88.093 Y141.349 E1.20225
G1 X88.153 Y141.12 E1.21338
G1 X88.266 Y140.772 E1.23059
G1 X88.352 Y140.55 E1.24179
G1 X88.52 Y140.205 E1.25983
G1 X88.697 Y139.902 E1.27633
G1 X88.837 Y139.691 E1.28824
G1 X89.124 Y139.317 E1.31041
G1 X89.342 Y139.068 E1.32598
G1 X89.641 Y138.796 E1.34498
G1 X89.984 Y138.572 E1.36425
G1 X90.19 Y138.48 E1.37486
G1 X90.791 Y138.166 E1.40675
G1 X91.296 Y137.818 E1.43559
G1 X91.634 Y137.555 E1.45573
G1 X91.948 Y137.341 E1.4736
G1 X92.106 Y137.251 E1.48215
G1 X92.534 Y137.082 E1.50379
G1 X92.781 Y137.001 E1.51601
G1 X93.237 Y136.885 E1.53814
G1 X93.609 Y136.818 E1.55591
G1 X94.021 Y136.764 E1.57545
G1 X94.212 Y136.754 E1.58445
G1 X94.581 Y136.762 E1.60181
G1 X94.956 Y136.801 E1.61954
G1 X95.275 Y136.858 E1.63477
G1 X95.508 Y136.912 E1.64602
G1 X96.255 Y137.128 E1.68259
G1 X96.26 Y137.118 E1.68312
G1 X96.393 Y137.153 E1.68958
G1 X97.081 Y137.247 E1.72224
G1 X97.777 Y137.253 E1.75497
G1 X98.467 Y137.171 E1.78765
G1 X99.143 Y137.003 E1.8204
G1 X99.791 Y136.75 E1.85312
G1 X100.394 Y136.422 E1.8854
G1 X100.933 Y136.074 E1.91557
G1 X101.069 Y136.011 E1.92262
G1 X101.331 Y135.905 E1.93591
G1 X101.614 Y135.809 E1.94996
G1 X101.843 Y135.749 E1.96109
G1 X102.265 Y135.687 E1.98115
G1 X102.474 Y135.67 E1.99101
G1 X102.778 Y135.662 E2.00531
G1 X103.014 Y135.671 E2.01642
G1 X103.557 Y135.718 E2.04205
G1 X103.556 Y135.718 E2.0421
G1 X104.29 Y135.84 E2.07709
G1 X105.125 Y136.029 E2.11735
G1 X105.447 Y136.124 E2.13314
G1 X105.973 Y136.254 E2.15862
G1 X106.761 Y136.357 E2.19599
G1 X107.097 Y136.376 E2.21182
G1 X107.61 Y136.381 E2.23594
G1 X107.987 Y136.36 E2.2537
G1 X108.849 Y136.284 E2.29439
G1 X109.022 Y136.276 E2.30254
G1 X109.495 Y136.309 E2.32483
G1 X110.019 Y136.388 E2.34975
G1 X110.347 Y136.46 E2.36555
G1 X110.656 Y136.575 E2.38105
G1 X111.271 Y136.855 E2.41283
G1 X111.422 Y136.931 E2.42078
G1 X111.688 Y137.096 E2.4355
G1 X112.277 Y137.434 E2.46743
G1 X112.919 Y137.701 E2.50013
G1 X113.583 Y137.883 E2.53251
G1 X113.583 Y137.899 E2.53326
G1 X114.225 Y137.984 E2.56371
G1 X114.482 Y138.041 E2.57609
G1 X114.912 Y138.156 E2.59703
G1 X115.115 Y138.219 E2.60702
G1 X115.362 Y138.321 E2.61959
G1 X115.941 Y138.588 E2.64957
G1 X116.685 Y138.976 E2.68903
G1 X116.928 Y139.14 E2.70282
G1 X117.655 Y139.682 E2.74546
G1 X117.795 Y139.809 E2.75435
G1 X117.98 Y139.993 E2.76662
G1 X118.17 Y140.208 E2.78011
G1 X118.594 Y140.773 E2.81333
G1 X118.895 Y141.213 E2.8384
G1 X119.003 Y141.39 E2.84815
G1 X119.184 Y141.726 E2.8661
G1 X119.227 Y141.837 E2.8717
G1 X119.319 Y142.12 E2.88569
G1 X119.375 Y142.323 E2.8956
G1 X119.576 Y143.214 E2.93855
G1 X119.611 Y143.402 E2.94754
G1 X119.658 Y143.773 E2.96513
G1 X119.657 Y143.921 E2.97209
G1 X119.638 Y144.245 E2.98735
G1 X119.615 Y144.453 E2.99719
G1 X119.431 Y145.484 E3.04644
G1 X119.342 Y145.828 E3.06315
G1 X119.239 Y146.109 E3.07723
G1 X119.096 Y146.398 E3.09239
G1 X118.77 Y146.957 E3.12282
G1 X118.627 Y147.186 E3.13552
G1 X118.318 Y147.64 E3.16134
G1 X118.164 Y147.838 E3.17314
G1 X117.928 Y148.085 E3.18921
G1 X117.485 Y148.602 E3.22122
G1 X117.103 Y149.182 E3.25388
G1 X116.796 Y149.807 E3.28663
G1 X116.57 Y150.474 E3.31975
G1 X116.515 Y150.663 E3.329
G1 X116.372 Y150.977 E3.34523
G1 X116.316 Y151.079 E3.3507
G1 X116.152 Y151.33 E3.3648
G1 X115.822 Y151.746 E3.38977
G1 X115.617 Y151.979 E3.40437
G1 X115.407 Y152.192 E3.41843
G1 X115.21 Y152.374 E3.43105
G1 X114.976 Y152.567 E3.44531
G1 X114.711 Y152.753 E3.46053
G1 X114.365 Y152.944 E3.47912
G1 X114.033 Y153.066 E3.49575
G1 X113.927 Y153.095 E3.50092
G1 X113.285 Y153.318 E3.53288
G1 X112.662 Y153.626 E3.56556
G1 X112.082 Y154.011 E3.5983
G1 X111.556 Y154.466 E3.63101
G1 X111.092 Y154.984 E3.66371
G1 X110.696 Y155.556 E3.69643
G1 X110.376 Y156.173 E3.72911
G1 X110.138 Y156.819 E3.76149
G1 X110.02 Y157.292 E3.78441
G1 X109.897 Y157.672 E3.8032
G1 X109.711 Y158.037 E3.82246
G1 X109.472 Y158.36 E3.84136
G1 X109.22 Y158.609 E3.85802
G1 X109.13 Y158.685 E3.86356
G1 X109.005 Y158.777 E3.87086
G1 X108.62 Y158.987 E3.89148
G1 X108.37 Y159.106 E3.9045
G1 X107.443 Y159.477 E3.95145
G1 X107.142 Y159.578 E3.96639
G1 X106.738 Y159.662 E3.98579
G1 X106.484 Y159.69 E3.99781
G1 X106.266 Y159.702 E4.00807
G1 X105.382 Y159.702 E4.04965
G1 X104.702 Y159.717 E4.08163
G1 X104.014 Y159.819 E4.11434
G1 X103.344 Y160.008 E4.14708
G1 X102.705 Y160.28 E4.17974
G1 X102.102 Y160.63 E4.21252
G1 X102.064 Y160.659 E4.21477
G1 X102.06 Y160.655 E4.21504
G1 X101.284 Y161.259 E4.26128
G1 X101.081 Y161.398 E4.27285
G1 X100.857 Y161.523 E4.28491
G1 X100.621 Y161.63 E4.2971
G1 X100.355 Y161.73 E4.31046
G1 X99.859 Y161.871 E4.33471
G1 X99.446 Y161.931 E4.35434
G1 X99.383 Y161.936 E4.35731
G0 F1012.5 X99.183 Y161.951
M204 S889
M205 X11.25 Y11.25
G0 F3600 X99 Y161.947
M204 S2000
M205 X15 Y15
G1 F1050 E4.36672
G1 F1125 X99 Y137.038 E5.5381
M204 S889
M205 X11.25 Y11.25
G0 F3600 X96 Y137.055
M204 S2000
M205 X15 Y15
G1 F1125 X96 Y160.528 E6.64195
M204 S889
M205 X11.25 Y11.25
G0 F3600 X102 Y160.702
M204 S2000
M205 X15 Y15
G1 F1125 X102 Y135.725 E7.81652
M204 S889
M205 X11.25 Y11.25
G0 F3600 X105 Y136.001
M204 S2000
M205 X15 Y15
G1 F1125 X105 Y159.711 E8.93152
M204 S889
M205 X11.25 Y11.25
G0 F3600 X108 Y159.255
M204 S2000
M205 X15 Y15
G1 F1125 X108 Y136.358 E10.00828
M204 S889
M205 X11.25 Y11.25
G0 F3600 X111 Y136.732
M204 S2000
M205 X15 Y15
G1 F1125 X111 Y155.117 E10.87286
M204 S889
M205 X11.25 Y11.25
G0 F3600 X114 Y153.076
M204 S2000
M205 X15 Y15
G1 F1125 X114 Y137.955 E11.58395
M204 S889
M205 X11.25 Y11.25
G0 F3600 X117 Y139.194
M204 S2000
M205 X15 Y15
G1 F1125 X117 Y149.392 E12.06352
M204 S889
M205 X11.25 Y11.25
G0 F3600 X93 Y149.45
M204 S2000
M205 X15 Y15
G1 F1125 X93 Y136.945 E12.65159
M204 S889
M205 X11.25 Y11.25
G0 F3600 X90 Y138.564
M204 S2000
M205 X15 Y15
G1 F1125 X90 Y146.054 E13.00382
M204 S889
M205 X11.25 Y11.25
G0 F3600 X91.796 Y148.46
G0 X92.395 Y149.455
G0 X92.719 Y150.4
G0 X94.631 Y159.128
;TIME_ELAPSED:19.662046
;LAYER:-5
M140 S60
G0 X94.631 Y159.128 Z0.579
M204 S2000
M205 X15 Y15
;TYPE:SUPPORT
G1 F1125 X94.979 Y159.654 E13.02037
G1 X95.369 Y160.174 E13.03742
G1 X95.644 Y160.492 E13.04846
G1 X96.315 Y161.064 E13.07159
G1 X96.414 Y161.161 E13.07523
G1 X96.709 Y161.39 E13.08503
G1 X97.094 Y161.602 E13.09656
G1 X97.126 Y161.614 E13.09746
G1 X97.316 Y161.686 E13.10279
G1 X97.832 Y161.896 E13.11741
G1 X98.027 Y161.984 E13.12302
G1 X98.385 Y162.087 E13.1328
G1 X98.78 Y162.137 E13.14325
G1 X93.713 Y157.07 E13.33128
G1 X93.565 Y156.552 E13.34542
G1 X93.492 Y156.103 E13.35736
G1 X93.377 Y155.603 E13.37082
G1 X99.847 Y162.073 E13.61092
G1 X99.906 Y162.065 E13.61248
G1 X100.113 Y162.012 E13.61809
G1 X100.409 Y161.921 E13.62622
G1 X100.701 Y161.812 E13.63439
G1 X100.713 Y161.807 E13.63474
G1 X93.02 Y154.114 E13.92022
G1 X93.013 Y153.898 E13.92589
G1 X93.074 Y153.431 E13.93825
G1 X93.109 Y153.072 E13.94772
G1 X101.433 Y161.395 E14.2566
G1 X102.047 Y160.925 E14.27689
G1 X102.073 Y160.904 E14.27777
G1 X93.233 Y152.064 E14.60582
G1 X93.253 Y151.888 E14.61047
G1 X93.244 Y151.219 E14.62803
G1 X93.198 Y150.898 E14.63654
G1 X102.77 Y160.47 E14.99175
G1 X102.793 Y160.458 E14.99243
G1 X103.41 Y160.196 E15.01002
G1 X103.579 Y160.148 E15.01463
G1 X92.713 Y149.281 E15.41789
G1 X92.297 Y148.58 E15.43928
G1 X92.222 Y148.474 E15.44269
G1 X92.102 Y148.269 E15.44892
G1 X91.732 Y147.721 E15.46627
G1 X91.291 Y147.218 E15.48382
G1 X90.788 Y146.775 E15.50141
G1 X90.233 Y146.397 E15.51903
G1 X89.689 Y146.119 E15.53506
G1 X89.523 Y146.04 E15.53989
M204 S889
M205 X11.25 Y11.25
G0 F3600 X88.602 Y145.202
M204 S2000
M205 X15 Y15
G1 F1125 X88.874 Y145.538 E15.55123
G1 X89.153 Y145.794 E15.56117
G1 X89.369 Y145.938 E15.56798
G1 X88.543 Y145.112 E15.59863
G1 X88.528 Y145.088 E15.59938
G1 X88.441 Y144.934 E15.60402
G1 X88.263 Y144.491 E15.61655
G1 X88.174 Y144.222 E15.62398
G1 X87.953 Y143.39 E15.64657
G1 X104.508 Y159.946 E16.26094
G1 X104.718 Y159.915 E16.26651
G1 X105.431 Y159.903 E16.28523
G1 X105.596 Y159.902 E16.28956
G1 X87.799 Y142.105 E16.95
G1 X87.843 Y141.615 E16.96291
G1 X87.9 Y141.295 E16.97144
G1 X87.945 Y141.12 E16.97618
G1 X106.692 Y159.866 E17.67187
G1 X106.766 Y159.859 E17.67382
G1 X107.191 Y159.771 E17.68521
G1 X107.497 Y159.668 E17.69368
G1 X107.589 Y159.632 E17.69627
G1 X88.251 Y140.294 E18.4139
G1 X88.348 Y140.099 E18.41962
G1 X88.515 Y139.813 E18.42831
G1 X88.669 Y139.58 E18.43564
G1 X108.396 Y159.308 E19.16772
G1 X108.46 Y159.283 E19.16953
G1 X108.714 Y159.163 E19.1769
G1 X109.114 Y158.944 E19.18887
G1 X109.141 Y158.922 E19.18978
G1 X89.174 Y138.954 E19.93077
G1 X89.199 Y138.927 E19.93174
G1 X89.521 Y138.633 E19.94318
G1 X89.802 Y138.451 E19.95197
G1 X109.716 Y158.365 E20.69097
G1 X109.88 Y158.143 E20.69822
G1 X110.083 Y157.744 E20.70996
G1 X110.119 Y157.636 E20.71295
G1 X90.548 Y138.066 E21.43921
G1 X90.686 Y137.993 E21.44331
G1 X91.177 Y137.655 E21.45895
G1 X91.229 Y137.615 E21.46067
G1 X110.373 Y156.759 E22.17111
G1 X110.558 Y156.253 E22.18524
G1 X110.709 Y155.964 E22.1938
G1 X91.888 Y137.143 E22.89225
G1 X92.019 Y137.069 E22.8962
G1 X92.461 Y136.894 E22.90867
G1 X92.694 Y136.818 E22.9151
G1 X111.14 Y155.264 E23.59963
G1 X111.249 Y155.106 E23.60467
G1 X111.659 Y154.651 E23.62074
G1 X93.622 Y136.614 E24.29009
G1 X93.86 Y136.578 E24.29641
G1 X94.107 Y136.555 E24.30292
G1 X94.43 Y136.554 E24.31139
G1 X94.709 Y136.569 E24.31873
G1 X112.266 Y154.127 E24.97029
G1 X112.761 Y153.799 E24.98587
G1 X112.967 Y153.696 E24.99191
G1 X96.153 Y136.883 E25.61586
G1 X96.431 Y136.955 E25.6234
G1 X97.094 Y137.046 E25.64096
G1 X97.452 Y137.05 E25.65035
G1 X113.764 Y153.362 E26.25569
G1 X113.987 Y153.285 E26.26188
G1 X114.081 Y153.259 E26.26444
G1 X114.449 Y153.125 E26.27472
G1 X114.583 Y153.05 E26.27875
G1 X98.492 Y136.958 E26.8759
G1 X99.081 Y136.811 E26.89183
G1 X99.366 Y136.701 E26.89985
G1 X115.256 Y152.592 E27.48954
G1 X115.339 Y152.525 E27.49234
G1 X115.544 Y152.337 E27.49964
G1 X115.753 Y152.125 E27.50745
G1 X115.832 Y152.036 E27.51058
G1 X100.133 Y136.337 E28.09317
G1 X100.291 Y136.25 E28.0979
G1 X100.83 Y135.903 E28.11472
G1 X116.338 Y151.411 E28.69022
G1 X116.49 Y151.176 E28.69757
G1 X116.553 Y151.062 E28.70098
G1 X116.7 Y150.735 E28.71039
G1 X116.722 Y150.663 E28.71237
G1 X101.65 Y135.591 E29.27169
G1 X101.812 Y135.548 E29.27609
G1 X102.115 Y135.502 E29.28413
G1 X102.407 Y135.473 E29.29183
G1 X102.654 Y135.463 E29.29832
G1 X117.011 Y149.821 E29.83112
G1 X117.277 Y149.28 E29.84694
G1 X117.406 Y149.084 E29.8531
G1 X103.888 Y135.566 E30.35475
G1 X104.384 Y135.654 E30.36797
G1 X104.982 Y135.785 E30.38403
G1 X105.338 Y135.885 E30.39374
G1 X117.889 Y148.436 E30.85951
G1 X118.075 Y148.219 E30.86701
G1 X118.312 Y147.971 E30.87601
G1 X118.419 Y147.834 E30.88057
G1 X106.737 Y136.152 E31.31409
G1 X106.778 Y136.157 E31.31517
G1 X107.103 Y136.175 E31.32371
G1 X107.601 Y136.18 E31.33678
G1 X107.88 Y136.164 E31.34411
G1 X118.878 Y147.162 E31.75225
G1 X118.933 Y147.072 E31.75502
G1 X119.277 Y146.479 E31.77301
G1 X119.294 Y146.447 E31.77396
G1 X108.926 Y136.079 E32.15871
G1 X108.996 Y136.076 E32.16055
G1 X109.148 Y136.079 E32.16454
G1 X109.511 Y136.108 E32.1741
G1 X110.052 Y136.19 E32.18846
G1 X110.2 Y136.222 E32.19243
G1 X119.602 Y145.624 E32.54134
G1 X119.624 Y145.533 E32.54379
G1 X119.779 Y144.669 E32.56683
G1 X112.362 Y137.252 E32.84207
G1 X112.983 Y137.51 E32.85972
G1 X113.628 Y137.687 E32.87727
G1 X113.782 Y137.711 E32.88136
G1 X113.992 Y137.751 E32.88697
G1 X119.836 Y143.595 E33.10384
G1 X119.807 Y143.364 E33.10995
G1 X119.772 Y143.176 E33.11497
G1 X119.57 Y142.278 E33.13912
G1 X119.539 Y142.167 E33.14214
G1 X115.569 Y138.196 E33.28949
G1 X116.114 Y138.449 E33.30526
G1 X116.787 Y138.804 E33.32522
G1 X117.137 Y139.044 E33.33636
G1 X117.415 Y139.255 E33.34552
G1 X117.614 Y139.396 E33.35192
G1 X117.813 Y139.554 E33.35858
G1 X117.922 Y139.652 E33.36243
G1 X118.175 Y139.908 E33.37188
G1 X118.274 Y140.017 E33.37574
G1 X118.755 Y140.656 E33.39673
G1 X119.061 Y141.1 E33.41088
G1 X119.177 Y141.291 E33.41674
G1 X119.362 Y141.636 E33.42701
G1 X119.418 Y141.778 E33.43102
G1 X119.51 Y142.063 E33.43888
M204 S889
M205 X11.25 Y11.25
G0 F3600 X97.126 Y161.614
M204 S2000
M205 X15 Y15
G1 F1125 X94.603 Y159.091 E33.53251
M204 S889
M205 X11.25 Y11.25
G0 F3600 X97.928 Y162.054
;TIME_ELAPSED:62.354455
;LAYER:-4
G0 X97.928 Y162.054 Z0.779
M204 S2000
M205 X15 Y15
G1 F1500 X98.362 Y162.185 E33.53819
G1 X98.818 Y162.244 E33.54396
G1 X99.177 Y162.251 E33.54846
G1 X99.487 Y162.228 E33.55236
G1 X99.75 Y162.194 E33.55568
G1 X99.913 Y162.166 E33.55776
G1 X100.138 Y162.111 E33.56066
G1 X100.451 Y162.014 E33.56477
G1 X100.488 Y162 E33.56527
G1 X100.728 Y161.91 E33.56848
G1 X100.909 Y161.833 E33.57095
G1 X101.248 Y161.648 E33.57579
G1 X101.317 Y161.6 E33.57685
G1 X96.881 Y161.6 E33.63247
G1 X96.654 Y161.474 E33.63573
G1 X96.346 Y161.235 E33.64062
G1 X96.307 Y161.2 E33.64128
G1 X101.852 Y161.2 E33.71081
G1 X102.269 Y160.88 E33.7174
G1 X102.406 Y160.8 E33.71939
G1 X95.849 Y160.8 E33.80162
G1 X95.578 Y160.568 E33.8061
G1 X95.432 Y160.4 E33.80889
G1 X103.188 Y160.4 E33.90615
G1 X103.442 Y160.292 E33.90961
G1 X104.076 Y160.113 E33.91787
G1 X104.726 Y160.016 E33.92611
G1 X105.377 Y160.002 E33.93428
G1 X106.264 Y160.002 E33.9454
G1 X106.299 Y160 E33.94584
G1 X95.112 Y160 E34.08613
G1 X94.897 Y159.713 E34.09063
G1 X94.822 Y159.6 E34.09233
G1 X107.94 Y159.6 E34.25683
G1 X108.489 Y159.381 E34.26425
G1 X108.75 Y159.257 E34.26787
G1 X108.854 Y159.2 E34.26936
G1 X94.556 Y159.2 E34.44866
